z_dist/img/bg/bp428/dark-about-footer-wave.svg

<svg width="428" height="688" viewBox="0 0 428 688" fill="none" xmlns="http://www.w3.org/2000/svg">
<path fill-rule="evenodd" clip-rule="evenodd" d="M17.8333 43.4986C0.720996 57.4623 0 61.7599 0 61.7599V139.003V139.11V687.003H428V139.11V139.003V64.9787L410.167 60.1442C402.227 57.9917 391.282 53.5071 378.198 48.1461C361.895 41.4662 342.271 33.4255 321 26.8396C314.988 24.9781 309.19 23.8106 303.375 22.6399C293.964 20.7451 284.511 18.8416 274.039 13.9733C259.447 5.2825 244.266 4.07382 229.132 2.8689C224.075 2.46627 219.023 2.06405 214 1.38322C178.333 -3.45131 145.193 4.89039 107 18.5733C90.0724 24.6377 73.9957 27.4797 59.851 29.9802C42.0816 33.1215 27.3613 35.7238 17.8333 43.4986Z" fill="#141414"/>
</svg>

<svg width="428" height="688" fill="none" xmlns="http://www.w3.org/2000/svg"><path fill-rule="evenodd" clip-rule="evenodd" d="M17.833 43.499C.721 57.462 0 61.759 0 61.759v625.244h428V64.979l-17.833-4.835c-7.94-2.152-18.885-6.637-31.969-11.998-16.303-6.68-35.927-14.72-57.198-21.306-6.012-1.862-11.81-3.03-17.625-4.2-9.411-1.895-18.864-3.798-29.336-8.667-14.592-8.69-29.773-9.9-44.907-11.104-5.057-.403-10.109-.805-15.132-1.486-35.667-4.834-68.807 3.507-107 17.19-16.928 6.065-33.004 8.907-47.149 11.407-17.77 3.141-32.49 5.744-42.018 13.519z" fill="#141414"/></svg>
